public/assets/logo/logo-white.svg

<svg width="80" height="80" viewBox="0 0 80 80" fill="none" xmlns="http://www.w3.org/2000/svg">
<g id="Group 3">
<circle id="Ellipse 24" cx="40" cy="40" r="39.5" fill="#F9FAFB" stroke="#F0F0F0"/>
<path id="Vector" d="M15 39.9989L25.8415 29.2526L28.9384 32.3224L21.1939 39.9989L28.9384 47.6754L25.8415 50.7452L15 39.9989ZM32.9618 58.9471L42.787 20L47.036 21.0529L37.213 60L32.9618 58.9471ZM51.0594 47.6754L58.8039 39.9989L51.0594 32.3224L54.1585 29.2526L65 39.9989L54.1585 50.7452L51.0594 47.6754Z" fill="#1D2A3D"/>
</g>
</svg>

<svg width="80" height="80" fill="none" xmlns="http://www.w3.org/2000/svg"><circle cx="40" cy="40" r="39.5" fill="#F9FAFB" stroke="#F0F0F0"/><path d="m15 39.999 10.841-10.746 3.097 3.07-7.744 7.676 7.744 7.676-3.096 3.07L15 40Zm17.962 18.948L42.787 20l4.249 1.053L37.213 60l-4.251-1.053Zm18.097-11.272L58.804 40l-7.745-7.677 3.1-3.07L65 40 54.158 50.745l-3.099-3.07Z" fill="#1D2A3D"/></svg>
